src/4-icons/checkbox.svg

<svg width="260" height="260" viewBox="0 0 260 260" fill="none" xmlns="http://www.w3.org/2000/svg">
<g opacity="0.9">
<path d="M154.544 168.245C155.013 167.752 155.298 167.102 155.298 166.4V131.612L165.698 118.742V166.4C165.672 173.576 159.874 179.375 152.698 179.4H79.8984C72.722 179.374 66.9238 173.575 66.8984 166.4V93.5999C66.9238 86.4235 72.722 80.6253 79.8984 80.5999H152.698C156.91 80.5745 159.562 82.1599 159.562 82.1599L152.698 90.9999H79.8984C79.1712 91.0253 78.5476 91.2853 78.053 91.7799C77.5838 92.2745 77.2984 92.8981 77.2984 93.5999V166.4C77.2984 167.127 77.5584 167.751 78.053 168.245C78.573 168.715 79.1966 169 79.8984 169H152.698C153.4 169 154.024 168.714 154.544 168.245Z" fill="black"/>
<path d="M119.886 143.884C119.886 143.884 162.189 91.4673 166.895 86.2419C171.627 80.9637 181.844 85.4619 181.818 85.4619L119.99 161.408L83.6682 122.668C83.6682 122.668 93.3653 117.183 98.6182 121.888C103.871 126.594 119.886 143.884 119.886 143.884Z" fill="black"/>
</g>
</svg>

<svg width="260" height="260" fill="none" xmlns="http://www.w3.org/2000/svg"><g opacity=".9" fill="#000"><path d="M154.544 168.245a2.676 2.676 0 0 0 .754-1.845v-34.788l10.4-12.87V166.4c-.026 7.176-5.824 12.975-13 13h-72.8c-7.176-.026-12.974-5.825-13-13V93.6c.026-7.176 5.824-12.975 13-13h72.8c4.212-.025 6.864 1.56 6.864 1.56L152.698 91h-72.8c-.727.025-1.35.285-1.845.78-.47.495-.755 1.118-.755 1.82v72.8c0 .727.26 1.351.755 1.845.52.47 1.144.755 1.845.755h72.8c.702 0 1.326-.286 1.846-.755Z"/><path d="M119.886 143.884s42.303-52.417 47.009-57.642c4.732-5.278 14.949-.78 14.923-.78l-61.828 75.946-36.322-38.74s9.697-5.485 14.95-.78c5.253 4.706 21.268 21.996 21.268 21.996Z"/></g></svg>
